packages/kaspersky-hexa-ui-icons/src/iconsSVGs/24/Text.svg

<svg width="24" height="24" viewBox="0 0 24 24" fill="none" xmlns="http://www.w3.org/2000/svg">
<path d="M3 3C3 2.44772 3.44772 2 4 2H20C20.5523 2 21 2.44772 21 3V6C21 6.55228 20.5523 7 20 7C19.4477 7 19 6.55228 19 6V4H13V20H16C16.5523 20 17 20.4477 17 21C17 21.5523 16.5523 22 16 22H8C7.44772 22 7 21.5523 7 21C7 20.4477 7.44772 20 8 20H11V4H5V6C5 6.55228 4.55228 7 4 7C3.44772 7 3 6.55228 3 6V3Z" fill="black"/>
</svg>

<svg xmlns="http://www.w3.org/2000/svg" width="24" height="24" fill="none" viewBox="0 0 24 24"><path fill="#000" d="M3 3c0-.5523.4477-1 1-1h16c.5523 0 1 .4477 1 1v3c0 .5523-.4477 1-1 1s-1-.4477-1-1V4h-6v16h3c.5523 0 1 .4477 1 1s-.4477 1-1 1H8c-.5523 0-1-.4477-1-1s.4477-1 1-1h3V4H5v2c0 .5523-.4477 1-1 1s-1-.4477-1-1z"/></svg>
